X: 461
T: Drink to me only
%R: air, waltz, jig
Z: 2017 John Chambers <jc:trillian.mit.edu>
B: John Treat - "Gamut for the Fifes", 1779, p.46 #1
F: https://archive.org/details/GamutFortheFifes
N: Bars 9,10 are mostly missing; reconstructed from the couple of good notes and several other old versions.
M: 6/8
L: 1/8
K: D
% - - - - - - - - - - - - - - - - - - - - - - - - -
V: 1 staves=2
[|\
fff g2g | agf (ef)g | (ad)g f2e | d3- d3 |\ 
fff g2g | agf (ef)g | (ad)g f2e | d3- d2 ||
|: a |\
afa b2a | afa a2a | b2a g2f | (f3 e2)z |\
fff g2g | agf (ef)g | adg f2e | d3- d2 :|
% - - - - - - - - - - - - - - - - - - - - - - - - -
V: 2
[|\
ddd e2e | (fe)d (cd)e | dfe d2A | F3 F3 |\
ddd e2e | (fe)d (cd)e | (df)e d2A | F3 F2 ||
|: f |\
fdf f2f | (fe)f f2f | g2f e2d | (d3 c2)z |\
ddd e2e | (fe)d (cd)e | (df)e d2A | F3 F2 :|
% - - - - - - - - - - - - - - - - - - - - - - - - -
